src/assets/images/about/svg/lg-optimus-3d.svg

<svg width="140" height="140" viewBox="0 0 140 140" fill="none" xmlns="http://www.w3.org/2000/svg">
<line x1="32" y1="126.5" x2="108" y2="126.5" stroke="url(#paint0_linear_149_72)" stroke-width="3"/>
<line x1="32" y1="12.5" x2="108" y2="12.5" stroke="url(#paint1_linear_149_72)" stroke-width="3"/>
<rect x="33.5" y="1.5" width="73" height="137" rx="9.5" stroke="url(#paint2_linear_149_72)" stroke-width="3"/>
<path d="M56.6449 78.1038C54.2478 75.0228 50.879 73.2349 47.6975 73.2349C43.4975 73.2349 41.7209 75.2958 38.8029 75.2958C35.7941 75.2958 33.5082 73.2409 29.876 73.2409C26.3082 73.2409 22.5092 75.4758 20.1004 79.2978C16.714 84.6798 17.2935 94.7987 22.7814 103.418C24.7453 106.502 27.3677 109.97 30.798 110C33.8507 110.03 34.7111 107.993 38.8468 107.972C42.9824 107.948 43.7668 110.027 46.8136 109.994C50.2468 109.967 53.0127 106.124 54.9766 103.04C56.3844 100.829 56.9083 99.7156 58 97.2196C50.0595 94.1207 48.7863 82.5468 56.6449 78.1038Z" fill="url(#paint3_linear_149_72)"/>
<path d="M46.778 62C44.2814 62.177 41.3634 63.815 39.6629 65.948C38.1117 67.8829 36.8356 70.7569 37.3331 73.5499C40.0609 73.6369 42.8795 71.9599 44.5126 69.7909C46.0405 67.7719 47.1966 64.916 46.778 62Z" fill="url(#paint4_linear_149_72)"/>
<path d="M110.25 78.9999C111.931 78.9999 113.398 77.542 113.398 75.8703V68.5611H115.5C116.761 68.5611 117.602 67.7251 117.602 66.4714V45.5955H92.3977V66.4716C92.3977 67.7254 93.2385 68.5613 94.4997 68.5613H96.6019V75.8704C96.6019 77.5422 98.068 79.0001 99.75 79.0001C101.431 79.0001 102.898 77.5422 102.898 75.8704V68.5613H107.102V75.8704C107.102 77.542 108.568 78.9999 110.25 78.9999Z" fill="url(#paint5_linear_149_72)"/>
<path d="M122.5 66C123.836 66 125 64.6035 125 63.0017V48.9971C125 47.4039 123.836 46 122.5 46C121.164 46 120 47.4039 120 48.9971V63.0017C120 64.6033 121.164 66 122.5 66Z" fill="url(#paint6_linear_149_72)"/>
<path d="M87.4999 66C88.8355 66 90 64.6035 90 63.0017V48.9971C90 47.4039 88.8356 46 87.4999 46C86.1644 46 85 47.4039 85 48.9971V63.0017C85 64.6033 86.1644 66 87.4999 66Z" fill="url(#paint7_linear_149_72)"/>
<path d="M115.079 29.3153C114.659 28.8949 114.033 28.8949 113.613 29.3153L110.794 32.1088L110.664 32.238C108.992 31.4057 107.118 30.9901 105.031 30.9861C105.02 30.9861 105.01 30.9858 105 30.9858H105C104.989 30.9858 104.979 30.9861 104.969 30.9861C102.882 30.9901 101.007 31.4057 99.3359 32.238L99.2055 32.1088L96.3864 29.3153C95.9658 28.8949 95.3405 28.8949 94.9203 29.3153C94.4997 29.7334 94.4997 30.3539 94.9203 30.7717L97.6475 33.4834C96.7687 34.0667 95.9719 34.7805 95.2789 35.5969C93.62 37.5518 92.5618 40.096 92.4163 42.8526C92.415 42.8813 92.4121 42.9097 92.4108 42.9384C92.4019 43.1261 92.3977 43.3148 92.3977 43.5041H117.602C117.602 43.3148 117.597 43.1261 117.589 42.9384C117.587 42.9097 117.585 42.8813 117.583 42.8526C117.438 40.096 116.379 37.5516 114.72 35.597C114.028 34.7807 113.231 34.0669 112.352 33.4836L115.079 30.7719C115.5 30.3539 115.5 29.7334 115.079 29.3153ZM99.7459 39.8554C98.8763 39.8554 98.1712 39.1545 98.1712 38.2899C98.1712 37.4253 98.8763 36.7244 99.7459 36.7244C100.616 36.7244 101.321 37.4253 101.321 38.2899C101.321 39.1545 100.616 39.8554 99.7459 39.8554ZM110.254 39.8554C109.384 39.8554 108.679 39.1545 108.679 38.2899C108.679 37.4253 109.384 36.7244 110.254 36.7244C111.123 36.7244 111.828 37.4253 111.828 38.2899C111.828 39.1545 111.123 39.8554 110.254 39.8554Z" fill="url(#paint8_linear_149_72)"/>
<defs>
<linearGradient id="paint0_linear_149_72" x1="17.8857" y1="129.258" x2="18.2841" y2="122.486" gradientUnits="userSpaceOnUse">
<stop stop-color="#48C8FF"/>
<stop offset="1" stop-color="#FF5BCB"/>
</linearGradient>
<linearGradient id="paint1_linear_149_72" x1="17.8857" y1="15.2584" x2="18.2841" y2="8.48625" gradientUnits="userSpaceOnUse">
<stop stop-color="#48C8FF"/>
<stop offset="1" stop-color="#FF5BCB"/>
</linearGradient>
<linearGradient id="paint2_linear_149_72" x1="17.8857" y1="176.179" x2="131.724" y2="162.357" gradientUnits="userSpaceOnUse">
<stop stop-color="#48C8FF"/>
<stop offset="1" stop-color="#FF5BCB"/>
</linearGradient>
<linearGradient id="paint3_linear_149_72" x1="10.5714" y1="119.501" x2="67.9707" y2="105.533" gradientUnits="userSpaceOnUse">
<stop stop-color="#48C8FF"/>
<stop offset="1" stop-color="#FF5BCB"/>
</linearGradient>
<linearGradient id="paint4_linear_149_72" x1="35.4335" y1="76.5387" x2="49.5936" y2="73.8959" gradientUnits="userSpaceOnUse">
<stop stop-color="#48C8FF"/>
<stop offset="1" stop-color="#FF5BCB"/>
</linearGradient>
<linearGradient id="paint5_linear_149_72" x1="87.7169" y1="87.6327" x2="124.965" y2="81.3466" gradientUnits="userSpaceOnUse">
<stop stop-color="#48C8FF"/>
<stop offset="1" stop-color="#FF5BCB"/>
</linearGradient>
<linearGradient id="paint6_linear_149_72" x1="119.071" y1="71.1685" x2="126.648" y2="70.7449" gradientUnits="userSpaceOnUse">
<stop stop-color="#48C8FF"/>
<stop offset="1" stop-color="#FF5BCB"/>
</linearGradient>
<linearGradient id="paint7_linear_149_72" x1="84.0714" y1="71.1685" x2="91.6475" y2="70.7449" gradientUnits="userSpaceOnUse">
<stop stop-color="#48C8FF"/>
<stop offset="1" stop-color="#FF5BCB"/>
</linearGradient>
<linearGradient id="paint8_linear_149_72" x1="87.7169" y1="47.2524" x2="120.999" y2="34.3167" gradientUnits="userSpaceOnUse">
<stop stop-color="#48C8FF"/>
<stop offset="1" stop-color="#FF5BCB"/>
</linearGradient>
</defs>
</svg>

<svg xmlns="http://www.w3.org/2000/svg" width="140" height="140" fill="none"><path stroke="url(#a)" stroke-width="3" d="M32 126.5h76"/><path stroke="url(#b)" stroke-width="3" d="M32 12.5h76"/><rect width="73" height="137" x="33.5" y="1.5" stroke="url(#c)" stroke-width="3" rx="9.5"/><path fill="url(#d)" d="M56.645 78.104c-2.397-3.081-5.766-4.87-8.948-4.87-4.2 0-5.976 2.062-8.894 2.062-3.009 0-5.295-2.055-8.927-2.055-3.568 0-7.367 2.235-9.776 6.057-3.386 5.382-2.806 15.5 2.681 24.12 1.964 3.084 4.587 6.552 8.017 6.582 3.053.03 3.913-2.007 8.049-2.028 4.135-.024 4.92 2.055 7.967 2.022 3.433-.027 6.199-3.87 8.163-6.954 1.407-2.211 1.931-3.324 3.023-5.82-7.94-3.1-9.214-14.673-1.355-19.116Z"/><path fill="url(#e)" d="M46.778 62c-2.497.177-5.415 1.815-7.115 3.948-1.551 1.935-2.827 4.809-2.33 7.602 2.728.087 5.547-1.59 7.18-3.76 1.528-2.018 2.684-4.874 2.265-7.79Z"/><path fill="url(#f)" d="M110.25 79c1.681 0 3.148-1.458 3.148-3.13v-7.309h2.102c1.261 0 2.102-.836 2.102-2.09V45.595H92.398v20.877c0 1.253.84 2.09 2.102 2.09h2.102v7.308c0 1.672 1.466 3.13 3.148 3.13 1.681 0 3.148-1.458 3.148-3.13v-7.309h4.204v7.31c0 1.671 1.466 3.129 3.148 3.129Z"/><path fill="url(#g)" d="M122.5 66c1.336 0 2.5-1.397 2.5-2.998V48.997c0-1.593-1.164-2.997-2.5-2.997s-2.5 1.404-2.5 2.997v14.005c0 1.601 1.164 2.998 2.5 2.998Z"/><path fill="url(#h)" d="M87.5 66c1.335 0 2.5-1.397 2.5-2.998V48.997C90 47.404 88.836 46 87.5 46S85 47.404 85 48.997v14.005C85 64.603 86.164 66 87.5 66Z"/><path fill="url(#i)" d="M115.079 29.315a1.01 1.01 0 0 0-1.466 0l-2.819 2.794-.13.129c-1.672-.832-3.546-1.248-5.633-1.252h-.062c-2.087.004-3.962.42-5.633 1.252l-.13-.13-2.82-2.793a1.01 1.01 0 0 0-1.466 0 .998.998 0 0 0 0 1.457l2.727 2.711a11.342 11.342 0 0 0-2.368 2.114 12.23 12.23 0 0 0-2.863 7.256l-.005.085c-.01.188-.013.377-.013.566h25.204c0-.19-.005-.378-.013-.566l-.006-.085a12.226 12.226 0 0 0-2.863-7.256 11.31 11.31 0 0 0-2.368-2.113l2.727-2.712a.998.998 0 0 0 0-1.457Zm-15.333 10.54c-.87 0-1.575-.7-1.575-1.565a1.57 1.57 0 0 1 1.575-1.566c.87 0 1.575.701 1.575 1.566a1.57 1.57 0 0 1-1.575 1.565Zm10.508 0c-.87 0-1.575-.7-1.575-1.565a1.57 1.57 0 0 1 1.575-1.566c.869 0 1.574.701 1.574 1.566a1.57 1.57 0 0 1-1.574 1.565Z"/><defs><linearGradient id="a" x1="17.886" x2="18.284" y1="129.258" y2="122.486" gradientUnits="userSpaceOnUse"><stop stop-color="#48C8FF"/><stop offset="1" stop-color="#FF5BCB"/></linearGradient><linearGradient id="b" x1="17.886" x2="18.284" y1="15.258" y2="8.486" gradientUnits="userSpaceOnUse"><stop stop-color="#48C8FF"/><stop offset="1" stop-color="#FF5BCB"/></linearGradient><linearGradient id="c" x1="17.886" x2="131.724" y1="176.179" y2="162.357" gradientUnits="userSpaceOnUse"><stop stop-color="#48C8FF"/><stop offset="1" stop-color="#FF5BCB"/></linearGradient><linearGradient id="d" x1="10.571" x2="67.971" y1="119.501" y2="105.533" gradientUnits="userSpaceOnUse"><stop stop-color="#48C8FF"/><stop offset="1" stop-color="#FF5BCB"/></linearGradient><linearGradient id="e" x1="35.434" x2="49.594" y1="76.539" y2="73.896" gradientUnits="userSpaceOnUse"><stop stop-color="#48C8FF"/><stop offset="1" stop-color="#FF5BCB"/></linearGradient><linearGradient id="f" x1="87.717" x2="124.965" y1="87.633" y2="81.347" gradientUnits="userSpaceOnUse"><stop stop-color="#48C8FF"/><stop offset="1" stop-color="#FF5BCB"/></linearGradient><linearGradient id="g" x1="119.071" x2="126.648" y1="71.168" y2="70.745" gradientUnits="userSpaceOnUse"><stop stop-color="#48C8FF"/><stop offset="1" stop-color="#FF5BCB"/></linearGradient><linearGradient id="h" x1="84.071" x2="91.647" y1="71.168" y2="70.745" gradientUnits="userSpaceOnUse"><stop stop-color="#48C8FF"/><stop offset="1" stop-color="#FF5BCB"/></linearGradient><linearGradient id="i" x1="87.717" x2="120.999" y1="47.252" y2="34.317" gradientUnits="userSpaceOnUse"><stop stop-color="#48C8FF"/><stop offset="1" stop-color="#FF5BCB"/></linearGradient></defs></svg>
